X:15908
%11258
T:Mountain Road, The
C:Michael Gorman (1895-1970)
S:as played by James Kelly on Capel Street
N:transcribed by Alan Ng
H:"a great favourite of set dancers in County Clare" -J.Kelly
D:James Kelly, Capel Street, Bowhand Records BOW 0001
Z:composer according to http://home1.swipnet.se/~w-11382/hnr0.abc #79
Z:id:ng-reels-13 transcribed by Alan Ng agng@students.wisc.edu Feb. 6, 1997
E:12
M:C|
K:Cmaj
\bigskip
E2GE AEGE|~E2GE DECD|1 E2GE AEGE|{F}ED{E}DC {E}DC[CA,]C:|2 EG~G2 AGEA|*
E:13
GAcd e ~c3|:~c3A GCEG|~c3d efed|cdec GECE|FDEC DCA,C:|**
\bigskip


